src/status/24/element-desktop-tray.svg

<svg width="24" height="24" viewBox="0 0 24 24" xmlns="http://www.w3.org/2000/svg">
 <path d="m10.605469 3.273438c-0.582031 0-1.046875 0.46875-1.046875 1.046874 0 0.578126 0.464844 1.046876 1.046875 1.046876 2.699219 0 4.886719 2.1875 4.886719 4.886718 0 0.578125 0.46875 1.046875 1.046874 1.046875 0.578126 0 1.046876-0.46875 1.046876-1.046875 0-3.855468-3.125-6.980468-6.980469-6.980468zm-0.351563 3.140624c-3.855468 0-6.980468 3.125-6.980468 6.980469 0 0.582031 0.46875 1.046875 1.046874 1.046875 0.578126 0 1.046876-0.464844 1.046876-1.046875 0-2.699219 2.1875-4.886719 4.886718-4.886719 0.578125 0 1.046875-0.46875 1.046875-1.046874 0-0.578126-0.46875-1.046876-1.046875-1.046876zm9.425782 3.144532c-0.578126 0-1.046876 0.464844-1.046876 1.046875 0 2.699219-2.1875 4.886719-4.886718 4.886719-0.578125 0-1.046875 0.46875-1.046875 1.046874 0 0.578126 0.46875 1.046876 1.046875 1.046876 3.855468 0 6.980468-3.125 6.980468-6.980469 0-0.582031-0.46875-1.046875-1.046874-1.046875zm-12.21875 3.140625c-0.578126 0-1.046876 0.46875-1.046876 1.046875 0 3.855468 3.125 6.980468 6.980469 6.980468 0.582031 0 1.046875-0.46875 1.046875-1.046874 0-0.578126-0.464844-1.046876-1.046875-1.046876-2.699219 0-4.886719-2.1875-4.886719-4.886718 0-0.578125-0.46875-1.046875-1.046874-1.046875z" fill="rgb(18.039216%, 20.392157%, 25.098041%)"/>
</svg>

<svg xmlns="http://www.w3.org/2000/svg" xmlns:xlink="http://www.w3.org/1999/xlink" width="24" height="24" viewBox="0 0 24 24">
<path fill-rule="nonzero" fill="rgb(18.039216%, 20.392157%, 25.098041%)" fill-opacity="1" d="M 10.605469 3.273438 C 10.023438 3.273438 9.558594 3.742188 9.558594 4.320312 C 9.558594 4.898438 10.023438 5.367188 10.605469 5.367188 C 13.304688 5.367188 15.492188 7.554688 15.492188 10.253906 C 15.492188 10.832031 15.960938 11.300781 16.539062 11.300781 C 17.117188 11.300781 17.585938 10.832031 17.585938 10.253906 C 17.585938 6.398438 14.460938 3.273438 10.605469 3.273438 Z M 10.253906 6.414062 C 6.398438 6.414062 3.273438 9.539062 3.273438 13.394531 C 3.273438 13.976562 3.742188 14.441406 4.320312 14.441406 C 4.898438 14.441406 5.367188 13.976562 5.367188 13.394531 C 5.367188 10.695312 7.554688 8.507812 10.253906 8.507812 C 10.832031 8.507812 11.300781 8.039062 11.300781 7.460938 C 11.300781 6.882812 10.832031 6.414062 10.253906 6.414062 Z M 19.679688 9.558594 C 19.101562 9.558594 18.632812 10.023438 18.632812 10.605469 C 18.632812 13.304688 16.445312 15.492188 13.746094 15.492188 C 13.167969 15.492188 12.699219 15.960938 12.699219 16.539062 C 12.699219 17.117188 13.167969 17.585938 13.746094 17.585938 C 17.601562 17.585938 20.726562 14.460938 20.726562 10.605469 C 20.726562 10.023438 20.257812 9.558594 19.679688 9.558594 Z M 7.460938 12.699219 C 6.882812 12.699219 6.414062 13.167969 6.414062 13.746094 C 6.414062 17.601562 9.539062 20.726562 13.394531 20.726562 C 13.976562 20.726562 14.441406 20.257812 14.441406 19.679688 C 14.441406 19.101562 13.976562 18.632812 13.394531 18.632812 C 10.695312 18.632812 8.507812 16.445312 8.507812 13.746094 C 8.507812 13.167969 8.039062 12.699219 7.460938 12.699219 Z M 7.460938 12.699219 "/>
</svg>
